X: 402
T:Pleine de dueil
N: Derived from Jos2920-Pleine_de_dueil.krn
C: Josquin des Prez
%%abc-version 2.0
%%abcx-abcm2ps-target-version 5.9.1 (29 Sep 2008)
%%abc-creator hum2abc beta
%%abcx-conversion-date 2019/02/12 16:15:55
%%abc-edited-by Jesse Rodin
%%abc-edited-by Will Watson 30/10/2011
%%abcx-initial-encoding-date 2011/10/30/
%%humdrum-veritas 3411946598
%%humdrum-veritas-data 216338607
%%linebreak <none>
%%barnumbers 0
L: 1/4
M: 2/1
Q: 1/2=120
V: 1 clef=treble
V: 2 clef=treble-8
V: 3 clef=treble-8
V: 4 clef=bass
V: 5 clef=bass
K: C
[V:1] z8 | 
[V:2] z8 | 
[V:3] z4A4 | 
[V:4] A,4A,4 | 
[V:5] z8 | 
[V:1] z8 | 
[V:2] A4A4 | 
[V:3] A4A4 | 
[V:4] A,4C4 | 
[V:5] z4A,,4 | 
[V:1] E4E4 | 
[V:2] A4c4 | 
[V:3] c8 | 
[V:4] z4E,4 | 
[V:5] A,,4A,,4 | 
[V:1] E4G4 | 
[V:2] z4c4 | 
[V:3] z4E4 | 
[V:4] E,4E,4 | 
[V:5] C,8 | 
[V:1] z4G4 | 
[V:2] c6c2 | 
[V:3] E4E4 | 
[V:4] G,8 | 
[V:5] C,4C,4- | 
[V:1] G6G2 | 
[V:2] G2G2_B4- | 
[V:3] G4z4 | 
[V:4] z4z2G,2 | 
[V:5] C,2C,2G,,4 | 
[V:1] D2D2F4- | 
[V:2] B4A4 | 
[V:3] z4z2d2 | 
[V:4] G,2G,2F,4 | 
[V:5] G,,4D,4- | 
[V:1] F4E4 | 
[V:2] z8 | 
[V:3] d2d2c2A2 | 
[V:4] D,4A,4- | 
[V:5] D,4A,,4 | 
[V:1] z8 | 
[V:2] z8 | 
[V:3] e8 | 
[V:4] A,4E,2G,2 | 
[V:5] z2A,,2C,2C,2 | 
[V:1] z8 | 
[V:2] z8 | 
[V:3] d4z2d2 | 
[V:4] G,2G,2F,4 | 
[V:5] G,,2G,,2D,4- | 
[V:1] z8 | 
[V:2] z8 | 
[V:3] d2d2c2A2 | 
[V:4] D,4A,4- | 
[V:5] D,4A,,4 | 
[V:1] z8 | 
[V:2] e4e4 | 
[V:3] c4B4 | 
[V:4] A,4E,4 | 
[V:5] z4E,4 | 
[V:1] B4B4 | 
[V:2] e4g4 | 
[V:3] z8 | 
[V:4] z4B,4 | 
[V:5] E,4E,4 | 
[V:1] B4d4 | 
[V:2] z4g4 | 
[V:3] z8 | 
[V:4] B,4B,4 | 
[V:5] G,8 | 
[V:1] z4d4 | 
[V:2] g6g2 | 
[V:3] B4B4 | 
[V:4] D8 | 
[V:5] G,4G,4- | 
[V:1] d6d2 | 
[V:2] d2d2f4- | 
[V:3] B4d4 | 
[V:4] z4z2D2 | 
[V:5] G,2G,2F,4 | 
[V:1] A2A2c4- | 
[V:2] f4e4 | 
[V:3] z2d2e2A2 | 
[V:4] D2D2C4 | 
[V:5] D,4A,4- | 
[V:1] c4B4 | 
[V:2] z8 | 
[V:3] e2f2g4- | 
[V:4] A,4E4- | 
[V:5] A,4E,4 | 
[V:1] z8 | 
[V:2] z8 | 
[V:3] g4d4 | 
[V:4] E4B,2D2 | 
[V:5] z2E,2G,2G,2 | 
[V:1] z8 | 
[V:2] z8 | 
[V:3] z2d2e2A2 | 
[V:4] D2D2C4 | 
[V:5] D,2D,2A,4- | 
[V:1] z8 | 
[V:2] z8 | 
[V:3] e2f2g4- | 
[V:4] A,4E4- | 
[V:5] A,4E,4 | 
[V:1] z8 | 
[V:2] g4g4 | 
[V:3] g4d4 | 
[V:4] E4B,4 | 
[V:5] z4G,4 | 
[V:1] d4d4 | 
[V:2] g4d4 | 
[V:3] z8 | 
[V:4] z4z2D2- | 
[V:5] G,4G,4 | 
[V:1] d4A4 | 
[V:2] z8 | 
[V:3] f6f2 | 
[V:4] D2D2D4 | 
[V:5] D,4D,2D,2 | 
[V:1] z8 | 
[V:2] z2d2c2c2 | 
[V:3] f4e4 | 
[V:4] A,4z2A,2 | 
[V:5] D,4A,,4 | 
[V:1] z2A2G2G2 | 
[V:2] d4B4 | 
[V:3] z2f2g2d2 | 
[V:4] F,2D,2G,4 | 
[V:5] z2D,2G,,2G,,2 | 
[V:1] A4F4 | 
[V:2] A8 | 
[V:3] d2f4ed | 
[V:4] F,4D,4 | 
[V:5] D,4D,4 | 
[V:1] E8 | 
[V:2] z8 | 
[V:3] c8 | 
[V:4] z4A,4 | 
[V:5] A,,8 | 
[V:1] z8 | 
[V:2] z8 | 
[V:3] z2c2c2c2 | 
[V:4] A,6G,2 | 
[V:5] F,6E,2 | 
[V:1] z8 | 
[V:2] z8 | 
[V:3] B2A3^G^G^F | 
[V:4] F,2E,2D,4 | 
[V:5] D,2C,2B,,4 | 
[V:1] z8 | 
[V:2] z4c4 | 
[V:3] A8 | 
[V:4] E,8 | 
[V:5] A,,8 | 
[V:1] z4G4 | 
[V:2] c4c4 | 
[V:3] z8 | 
[V:4] z8 | 
[V:5] C,4C,4 | 
[V:1] G4G4 | 
[V:2] G4z4 | 
[V:3] z4_B4 | 
[V:4] z4G,4 | 
[V:5] C,4G,,4 | 
[V:1] D4z4 | 
[V:2] z4z2G2 | 
[V:3] _B4_B4 | 
[V:4] G,4G,4 | 
[V:5] z8 | 
[V:1] z4z2D2 | 
[V:2] A4B4 | 
[V:3] A2F2F2F2 | 
[V:4] D,8 | 
[V:5] z2D,2D,2D,2 | 
[V:1] E4F4 | 
[V:2] c4A4 | 
[V:3] G2A4D2 | 
[V:4] z8 | 
[V:5] C,4D,4 | 
[V:1] G4E4 | 
[V:2] G8 | 
[V:3] z2d2c2c2 | 
[V:4] z2_B,2C2G,2 | 
[V:5] G,,2G,,2C,2C,2 | 
[V:1] D8 | 
[V:2] z8 | 
[V:3] dGg3^f^fe | 
[V:4] _B,4A,4 | 
[V:5] G,,4D,4 | 
[V:1] z8 | 
[V:2] z8 | 
[V:3] g2d2e2e2 | 
[V:4] G,2_B,2C2G,2 | 
[V:5] G,,2G,2C,2C,2 | 
[V:1] z8 | 
[V:2] z8 | 
[V:3] dGg3^f^fe | 
[V:4] _B,4A,4 | 
[V:5] G,4D,4 | 
[V:1] z8 | 
[V:2] _B6_B2 | 
[V:3] g4d4- | 
[V:4] G,8 | 
[V:5] G,,8 | 
[V:1] F6F2 | 
[V:2] _B4A4 | 
[V:3] d2d2d4 | 
[V:4] z4z2D,2 | 
[V:5] D,6D,2 | 
[V:1] F4E4 | 
[V:2] z8 | 
[V:3] G4c2c2 | 
[V:4] F,3G,A,4 | 
[V:5] D,4A,,4 | 
[V:1] z8 | 
[V:2] z2c2c2c2 | 
[V:3] c4G4 | 
[V:4] E,4z2G,2- | 
[V:5] C,2C,2C,4 | 
[V:1] z2G2G2G2 | 
[V:2] _B2G2_B4- | 
[V:3] z4d4- | 
[V:4] G,2G,2G,4 | 
[V:5] G,,2C,2_B,,2G,,2 | 
[V:1] F2D2F4- | 
[V:2] B4A4 | 
[V:3] d2d2d4 | 
[V:4] D,2G,2F,2D,2 | 
[V:5] D,2G,,2D,4- | 
[V:1] F4E4 | 
[V:2] z2d2c2c2 | 
[V:3] A4z4 | 
[V:4] F,2D,2A,4 | 
[V:5] D,4A,,4 | 
[V:1] z2A2G2G2 | 
[V:2] d2A2_B4 | 
[V:3] z2d2d2d2 | 
[V:4] D,4z4 | 
[V:5] z2F,2G,2G,,2 | 
[V:1] A2E2F4 | 
[V:2] A8- | 
[V:3] f2e2d4 | 
[V:4] z4z2D2 | 
[V:5] D,2C,2D,4 | 
[V:1] E8- | 
[V:2] A8- | 
[V:3] c2A2c2A2 | 
[V:4] E2C2A,2C2- | 
[V:5] A,,8- | 
[V:1] E8- | 
[V:2] A8- | 
[V:3] c2c2A3B | 
[V:4] CB,A,4G,F, | 
[V:5] A,,8- | 
[V:1] E8 |]  
[V:2] A8 |]  
[V:3] c8 |]  
[V:4] E,8 |]  
[V:5] A,,8 |]  



